images/fig9.svg

<?xml version="1.0" standalone="no"?>
<!DOCTYPE svg PUBLIC "-//W3C//DTD SVG 1.1//EN" 
  "http://www.w3.org/Graphics/SVG/1.1/DTD/svg11.dtd">
<!-- Created with ASCIIToSVG (http://9vx.org/~dho/a2s/) -->
<svg width="126px" height="256px" version="1.1"
  xmlns="http://www.w3.org/2000/svg" xmlns:xlink="http://www.w3.org/1999/xlink">
  <defs>
    <filter id="dsFilter" width="150%" height="150%">
      <feOffset result="offOut" in="SourceGraphic" dx="3" dy="3"/>
      <feColorMatrix result="matrixOut" in="offOut" type="matrix" values="0.2 0 0 0 0 0 0.2 0 0 0 0 0 0.2 0 0 0 0 0 1 0"/>
      <feBlend in="SourceGraphic" in2="matrixOut" mode="normal"/>
    </filter>
    <marker id="iPointer"
      viewBox="0 0 10 10" refX="5" refY="5" 
      markerUnits="strokeWidth"
      markerWidth="8" markerHeight="7"
      orient="auto">
      <path d="M 10 0 L 10 10 L 0 5 z" />
    </marker>
    <marker id="Pointer"
      viewBox="0 0 10 10" refX="5" refY="5" 
      markerUnits="strokeWidth"
      markerWidth="8" markerHeight="7"
      orient="auto">
      <path d="M 0 0 L 10 5 L 0 10 z" />
    </marker>
  </defs><g id="boxes" stroke="black" stroke-width="2" fill="none" >
<g id="group0">
	<path id="path0" filter="url(#dsFilter)" fill="#fff" d="M 4.5 8 L 121.5 8 L 121.5 62 Q 121.5 72 111.5 72 L 14.5 72 Q 4.5 72 4.5 62 Z" />
	<text x="44.1" y="28.8" id="text0" fill="#000" stroke="none" style="font-family:LMMono10,monospace;font-size:15.2px" >Node </text>

	<text x="35.1" y="60.8" id="text0" fill="#000" stroke="none" style="font-family:LMMono10,monospace;font-size:15.2px" >Socket </text>

</g>
<g id="group6">
	<path id="path6" filter="url(#dsFilter)" fill="#fff" d="M 4.5 178 Q 4.5 168 14.5 168 L 111.5 168 Q 121.5 168 121.5 178 L 121.5 232 L 4.5 232 Z" />
	<text x="35.1" y="188.8" id="text6" fill="#000" stroke="none" style="font-family:LMMono10,monospace;font-size:15.2px" >Socket </text>

	<text x="44.1" y="220.8" id="text6" fill="#000" stroke="none" style="font-family:LMMono10,monospace;font-size:15.2px" >Node </text>

</g>
</g>
<g id="lines" stroke="black" stroke-width="2" fill="none" >
<g id="group14">
	<path id="path14" d="M 4.5 40 L 121.5 40 " />
</g>
<g id="group25">
	<path id="path25" d="M 4.5 200 L 121.5 200 " />
</g>
<g id="group115">
	<path id="path115" marker-start="url(#iPointer)" marker-end="url(#Pointer)" d="M 58.5 88 L 58.5 120 L 58.5 152 " />
<circle cx="58.5" cy="120" r="3" fill="black" /></g>
</g>
<g id="text" fill="black" style="font-family:LMMono10,monospace;font-size:15.2px" >
<text x="26.1" y="124.8" id="text2" fill="#000" >1</text>
<text x="44.1" y="124.8" id="text3" fill="#000" >t</text>
<text x="71.1" y="124.8" id="text4" fill="#000" >1</text>
</g>
</svg>

<?xml version="1.0" encoding="UTF-8" standalone="no"?>
<!-- Created with Inkscape (http://www.inkscape.org/) -->

<svg
   xmlns:dc="http://purl.org/dc/elements/1.1/"
   xmlns:cc="http://creativecommons.org/ns#"
   xmlns:rdf="http://www.w3.org/1999/02/22-rdf-syntax-ns#"
   xmlns:svg="http://www.w3.org/2000/svg"
   xmlns="http://www.w3.org/2000/svg"
   version="1.1"
   width="126"
   height="256"
   id="svg2">
  <metadata
     id="metadata46">
    <rdf:RDF>
      <cc:Work
         rdf:about="">
        <dc:format>image/svg+xml</dc:format>
        <dc:type
           rdf:resource="http://purl.org/dc/dcmitype/StillImage" />
        <dc:title></dc:title>
      </cc:Work>
    </rdf:RDF>
  </metadata>
  <defs
     id="defs4">
    <filter
       width="1.5"
       height="1.5"
       color-interpolation-filters="sRGB"
       id="dsFilter">
      <feOffset
         id="feOffset7"
         dy="3"
         dx="3"
         in="SourceGraphic"
         result="offOut" />
      <feColorMatrix
         id="feColorMatrix9"
         values="0.2 0 0 0 0 0 0.2 0 0 0 0 0 0.2 0 0 0 0 0 1 0"
         type="matrix"
         in="offOut"
         result="matrixOut" />
      <feBlend
         in2="matrixOut"
         mode="normal"
         in="SourceGraphic"
         id="feBlend11" />
    </filter>
    <marker
       markerUnits="strokeWidth"
       refX="5"
       refY="5"
       markerWidth="8"
       markerHeight="7"
       orient="auto"
       viewBox="0 0 10 10"
       id="iPointer">
      <path
         d="M 10,0 10,10 0,5 z"
         id="path14" />
    </marker>
    <marker
       markerUnits="strokeWidth"
       refX="5"
       refY="5"
       markerWidth="8"
       markerHeight="7"
       orient="auto"
       viewBox="0 0 10 10"
       id="Pointer">
      <path
         d="M 0,0 10,5 0,10 z"
         id="path17" />
    </marker>
  </defs>
  <g
     id="boxes"
     style="fill:none;stroke:#000000;stroke-width:2">
    <g
       id="group0">
      <path
         d="m 4.5,8 117,0 0,54 q 0,10 -10,10 l -97,0 q -10,0 -10,-10 z"
         id="path0"
         style="fill:#ffffff;filter:url(#dsFilter)" />
      <text
         x="37.761017"
         y="28.799999"
         id="text0"
         style="font-size:15.19999981px;fill:#000000;stroke:none;font-family:'LMMono10, monospace'">ノード</text>
      <text
         x="35.099998"
         y="60.799999"
         id="text23"
         style="font-size:15.19999981px;fill:#000000;stroke:none;font-family:'LMMono10, monospace'">ソケット</text>
    </g>
    <g
       id="group6">
      <path
         d="m 4.5,178 q 0,-10 10,-10 l 97,0 q 10,0 10,10 l 0,54 -117,0 z"
         id="path6"
         style="fill:#ffffff;filter:url(#dsFilter)" />
      <text
         x="35.099998"
         y="188.8"
         id="text6"
         style="font-size:15.19999981px;fill:#000000;stroke:none;font-family:'LMMono10, monospace'">ソケット</text>
      <text
         x="39.930508"
         y="222.42712"
         id="text28"
         style="font-size:15.19999981px;fill:#000000;stroke:none;font-family:'LMMono10, monospace'">ノード</text>
    </g>
  </g>
  <g
     id="lines"
     style="fill:none;stroke:#000000;stroke-width:2">
    <g
       id="group14">
      <path
         d="m 4.5,40 117,0"
         id="path32" />
    </g>
    <g
       id="group25">
      <path
         d="m 4.5,200 117,0"
         id="path25" />
    </g>
    <path
       d="m 58.5,88 0,32 0,32"
       id="path115"
       style="marker-start:url(#iPointer);marker-end:url(#Pointer)" />
    <circle
       cx="58.5"
       cy="120"
       r="3"
       id="circle38"
       style="fill:#000000" />
  </g>
  <g
     transform="translate(-4.3389831,-0.54237288)"
     id="text"
     style="font-size:15.19999981px;fill:#000000;font-family:'LMMono10, monospace'">
    <text
       x="26.1"
       y="124.8"
       id="text2"
       style="fill:#000000">1</text>
    <text
       x="43.015251"
       y="125.34238"
       id="text3"
       style="fill:#000000">対</text>
    <text
       x="71.099998"
       y="124.8"
       id="text4"
       style="fill:#000000">1</text>
  </g>
</svg>
